X:71
T:Kruspolskan
R:sl-polska
A:\"Oland
Z:id:hn-sp-71
M:3/4
L:1/16
K:Edor
B3G E2E2 G2G2 | A2A2 c2cA B4 | G3B d2B2 G2G2 | A2A2 c2cA B4 |
B3d f2f2 e2e2 | d2d2 B2B2 G2G2 | A2F2 PF2E2 E4 :|
|: E3F G2E2 F4 | F2EF G2E2 E4 | E3F G2E2 F4 | F2EF G4 E4 :|

